assets/images/svg/vk.svg

<svg width="53" height="31" viewBox="0 0 53 31" fill="none" xmlns="http://www.w3.org/2000/svg">
<path d="M50.1212 24.7205C48.5734 22.8188 46.752 21.1959 45.0286 19.4725C43.4739 17.9191 43.3758 17.0179 44.6256 15.225C45.9897 13.2682 47.4566 11.3864 48.8331 9.4384C50.1179 7.61788 51.4313 5.80233 52.1074 3.62256C52.5362 2.23579 52.157 1.62325 50.7687 1.38044C50.5295 1.33795 50.2822 1.33574 50.0387 1.33574L41.8022 1.32581C40.7878 1.31036 40.227 1.76342 39.8682 2.68444C39.3839 3.92939 38.8845 5.17323 38.3075 6.37459C36.9984 9.09846 35.5363 11.7313 33.4865 13.9607C33.0345 14.4524 32.5346 15.0738 31.7793 14.8177C30.8344 14.4645 30.5558 12.8697 30.5715 12.3306L30.5634 2.59228C30.3802 1.20109 30.0791 0.580826 28.7306 0.310425L20.1747 0.31208C19.0326 0.31208 18.4599 0.764036 17.8501 1.49577C17.4983 1.91848 17.3922 2.19275 18.1151 2.33291C19.5352 2.60883 20.3352 3.55027 20.5475 5.00878C20.8879 7.3392 20.8642 9.679 20.6681 12.0188C20.6105 12.702 20.4957 13.3835 20.2312 14.0214C19.8175 15.0241 19.1495 15.2283 18.2719 14.6113C17.4773 14.0529 16.9192 13.2648 16.3729 12.4735C14.3209 9.50351 12.6837 6.30064 11.3488 2.93497C10.9631 1.96263 10.2977 1.37327 9.29193 1.35726C6.82082 1.31698 4.34916 1.31036 1.87804 1.35947C0.391166 1.38817 -0.0522025 2.12763 0.553321 3.50833C3.24478 9.64092 6.24061 15.603 10.1512 21.0342C12.159 23.8215 14.4642 26.2822 17.4423 28.026C20.8174 30.0027 24.4505 30.5976 28.277 30.4144C30.0688 30.3283 30.607 29.8509 30.69 28.0216C30.746 26.77 30.8845 25.5256 31.4873 24.401C32.0788 23.2973 32.9747 23.087 34.0074 23.7735C34.5241 24.1173 34.9594 24.5549 35.3704 25.0163C36.3789 26.1464 37.3513 27.3108 38.398 28.4029C39.7109 29.7715 41.2662 30.5799 43.2217 30.4149L50.7919 30.4166C52.0115 30.3349 52.644 28.803 51.9437 27.4085C51.4518 26.4317 50.8064 25.562 50.1212 24.7205Z" fill="white"/>
</svg>

<svg width="53" height="31" fill="none" xmlns="http://www.w3.org/2000/svg"><path d="M50.121 24.72c-1.548-1.901-3.369-3.524-5.092-5.247-1.555-1.554-1.653-2.455-.403-4.248 1.364-1.957 2.83-3.839 4.207-5.787 1.285-1.82 2.598-3.636 3.274-5.815.43-1.387.05-2-1.338-2.243a4.186 4.186 0 00-.73-.044l-8.237-.01c-1.014-.016-1.575.437-1.934 1.358-.484 1.245-.983 2.49-1.56 3.69-1.31 2.724-2.772 5.357-4.822 7.587-.451.491-.951 1.113-1.707.857-.945-.354-1.223-1.948-1.207-2.487l-.009-9.739C30.38 1.202 30.08.581 28.731.31l-8.556.002c-1.142 0-1.715.452-2.325 1.184-.352.422-.458.697.265.837 1.42.276 2.22 1.217 2.433 2.676.34 2.33.316 4.67.12 7.01-.058.683-.172 1.364-.437 2.002-.414 1.003-1.082 1.207-1.96.59-.794-.558-1.352-1.346-1.898-2.138-2.052-2.97-3.69-6.172-5.024-9.538-.386-.972-1.051-1.562-2.057-1.578-2.471-.04-4.943-.047-7.414.002-1.487.03-1.93.769-1.325 2.15 2.692 6.132 5.688 12.094 9.598 17.525 2.008 2.788 4.313 5.248 7.291 6.992 3.375 1.977 7.009 2.572 10.835 2.388 1.792-.086 2.33-.563 2.413-2.392.056-1.252.194-2.496.797-3.621.592-1.104 1.488-1.314 2.52-.628.517.344.952.782 1.363 1.243 1.009 1.13 1.981 2.295 3.028 3.387 1.313 1.369 2.868 2.177 4.824 2.012l7.57.002c1.22-.082 1.852-1.614 1.152-3.009-.492-.976-1.138-1.846-1.823-2.688z" fill="#fff"/></svg>
